polaris-icons/icons/newicons/DomainRedirectMinor.svg

<svg width="20" height="20" viewBox="0 0 20 20" fill="none" xmlns="http://www.w3.org/2000/svg">
<path fill-rule="evenodd" clip-rule="evenodd" d="M18 10C18 14.4183 14.4183 18 10 18C5.58172 18 2 14.4183 2 10C2 5.58172 5.58172 2 10 2C14.4183 2 18 5.58172 18 10ZM14.0353 15.096C12.9268 15.975 11.5247 16.5 10 16.5C6.41015 16.5 3.5 13.5899 3.5 10C3.5 6.41015 6.41015 3.5 10 3.5C13.5899 3.5 16.5 6.41015 16.5 10C16.5 11.5247 15.975 12.9268 15.096 14.0354L10.2604 9.19972L11.4422 9.16391C11.8562 9.15136 12.1816 8.80556 12.1691 8.39153C12.1566 7.97751 11.8108 7.65205 11.3967 7.66459L8.47991 7.75298C8.08352 7.76499 7.76498 8.08353 7.75297 8.47992L7.66458 11.3967C7.65204 11.8108 7.9775 12.1566 8.39152 12.1691C8.80555 12.1817 9.15135 11.8562 9.1639 11.4422L9.19971 10.2604L14.0353 15.096Z" fill="black"/>
</svg>

<svg viewBox="0 0 20 20" fill="none" xmlns="http://www.w3.org/2000/svg"><path fill-rule="evenodd" clip-rule="evenodd" d="M18 10a8 8 0 1 1-16 0 8 8 0 0 1 16 0Zm-3.965 5.096a6.5 6.5 0 1 1 1.06-1.06l-4.835-4.836 1.182-.036a.75.75 0 0 0-.045-1.5l-2.917.089a.75.75 0 0 0-.727.727l-.088 2.917a.75.75 0 1 0 1.499.045l.036-1.182 4.835 4.836Z" fill="#000"/></svg>
